mimes/16/office-contact.svg

<?xml version="1.0" encoding="UTF-8" standalone="no"?>
<svg
   xmlns:dc="http://purl.org/dc/elements/1.1/"
   xmlns:cc="http://creativecommons.org/ns#"
   xmlns:rdf="http://www.w3.org/1999/02/22-rdf-syntax-ns#"
   xmlns:svg="http://www.w3.org/2000/svg"
   xmlns="http://www.w3.org/2000/svg"
   xmlns:xlink="http://www.w3.org/1999/xlink"
   version="1.1"
   width="16"
   height="16"
   id="svg3810">
  <defs
     id="defs3812">
    <linearGradient
       x1="23.99999"
       y1="6.2052388"
       x2="23.99999"
       y2="41.589603"
       id="linearGradient3988"
       xlink:href="#linearGradient3977"
       gradientUnits="userSpaceOnUse"
       gradientTransform="matrix(0.24324324,0,0,0.35135133,2.1621636,-0.43242804)" />
    <linearGradient
       id="linearGradient3977">
      <stop
         id="stop3979"
         style="stop-color:#ffffff;stop-opacity:1"
         offset="0" />
      <stop
         id="stop3981"
         style="stop-color:#ffffff;stop-opacity:0.23529412"
         offset="0.02929282" />
      <stop
         id="stop3983"
         style="stop-color:#ffffff;stop-opacity:0.15686275"
         offset="0.97230476" />
      <stop
         id="stop3985"
         style="stop-color:#ffffff;stop-opacity:0.39215687"
         offset="1" />
    </linearGradient>
    <linearGradient
       id="linearGradient3600">
      <stop
         id="stop3602"
         style="stop-color:#f4f4f4;stop-opacity:1"
         offset="0" />
      <stop
         id="stop3604"
         style="stop-color:#dbdbdb;stop-opacity:1"
         offset="1" />
    </linearGradient>
    <linearGradient
       x1="25.132275"
       y1="0.98520643"
       x2="25.132275"
       y2="47.013336"
       id="linearGradient3806"
       xlink:href="#linearGradient3600"
       gradientUnits="userSpaceOnUse"
       gradientTransform="matrix(0.28571361,0,0,0.30419701,1.1428727,0.2326048)" />
    <linearGradient
       id="linearGradient3104-9">
      <stop
         id="stop3106-5"
         style="stop-color:#000000;stop-opacity:0.33950618"
         offset="0" />
      <stop
         id="stop3108-5"
         style="stop-color:#000000;stop-opacity:0.24691358"
         offset="1" />
    </linearGradient>
    <linearGradient
       x1="-51.786404"
       y1="50.786446"
       x2="-51.786404"
       y2="2.9062471"
       id="linearGradient3019"
       xlink:href="#linearGradient3104-9"
       gradientUnits="userSpaceOnUse"
       gradientTransform="matrix(0.25378586,0,0,0.30501865,19.128979,-0.68547704)" />
    <radialGradient
       cx="10.90426"
       cy="8.4497671"
       r="19.99999"
       fx="10.90426"
       fy="8.4497671"
       id="radialGradient3140"
       xlink:href="#linearGradient2867-449-88-871-390-598-476-591-434-148-57-177-641-289-620-227-114-444-680-744-8-7"
       gradientUnits="userSpaceOnUse"
       gradientTransform="matrix(0,0.44731149,-0.37711817,0,11.188238,0.2914362)" />
    <linearGradient
       id="linearGradient2867-449-88-871-390-598-476-591-434-148-57-177-641-289-620-227-114-444-680-744-8-7">
      <stop
         id="stop5430-8-6"
         style="stop-color:#5f5f5f;stop-opacity:1"
         offset="0" />
      <stop
         id="stop5432-3-5"
         style="stop-color:#4f4f4f;stop-opacity:1"
         offset="0.26238" />
      <stop
         id="stop5434-1-6"
         style="stop-color:#3b3b3b;stop-opacity:1"
         offset="0.704952" />
      <stop
         id="stop5436-8-9"
         style="stop-color:#2b2b2b;stop-opacity:1"
         offset="1" />
    </linearGradient>
    <linearGradient
       x1="24"
       y1="44"
       x2="24"
       y2="3.8990016"
       id="linearGradient3143"
       xlink:href="#linearGradient3707-319-631-407-324-616-674-812-821-107-178-392-400-6-7"
       gradientUnits="userSpaceOnUse"
       gradientTransform="matrix(0.29830664,0,0,0.31813165,0.8422856,1.017944)" />
    <linearGradient
       id="linearGradient3707-319-631-407-324-616-674-812-821-107-178-392-400-6-7">
      <stop
         id="stop5440-4-4"
         style="stop-color:#272727;stop-opacity:1"
         offset="0" />
      <stop
         id="stop5442-3-5"
         style="stop-color:#454545;stop-opacity:1"
         offset="1" />
    </linearGradient>
  </defs>
  <metadata
     id="metadata3815">
    <rdf:RDF>
      <cc:Work
         rdf:about="">
        <dc:format>image/svg+xml</dc:format>
        <dc:type
           rdf:resource="http://purl.org/dc/dcmitype/StillImage" />
        <dc:title />
      </cc:Work>
    </rdf:RDF>
  </metadata>
  <g
     id="layer1">
    <path
       d="m 3,1 c 2.2915074,0 9.999988,8.904e-4 9.999988,8.904e-4 L 13,15 C 13,15 6.3333332,15 3,15 3,10.333334 3,5.6666664 3,1 z"
       id="path4160"
       style="fill:url(#linearGradient3806);fill-opacity:1;stroke:none;display:inline" />
    <path
       d="m 12.5,14.5 -9.0000001,0 0,-13 L 12.5,1.5 z"
       id="rect6741-1"
       style="fill:none;stroke:url(#linearGradient3988);stroke-width:1;stroke-linecap:round;stroke-linejoin:miter;stroke-miterlimit:4;stroke-opacity:1;stroke-dasharray:none;stroke-dashoffset:0" />
    <path
       d="m 2.4999621,0.49997396 c 2.5206756,0 11.0000629,9.54e-4 11.0000629,9.54e-4 l 1.3e-5,14.99909804 c 0,0 -7.3333841,0 -11.000076,0 0,-5.000017 0,-10.000035 0,-15.00005204 z"
       id="path4160-8"
       style="fill:none;stroke:url(#linearGradient3019);stroke-width:0.99992192;stroke-linecap:butt;stroke-linejoin:round;stroke-miterlimit:4;stroke-opacity:1;stroke-dasharray:none;stroke-dashoffset:0;display:inline" />
  </g>
  <path
     d="m 7.9710241,6.0000285 c -0.2159651,-0.00127 -0.4055978,0.040109 -0.534671,0.125864 -0.1665228,0.1106434 -0.239943,0.1246866 -0.2864322,0.048409 -0.044482,-0.072976 -0.084931,-0.064823 -0.124119,0.038729 -0.033149,0.087579 -0.1024181,0.1275553 -0.181407,0.096819 -0.075317,-0.029304 -0.1061946,-0.019869 -0.076378,0.02904 0.028639,0.04701 0.014633,0.087139 -0.028639,0.087139 -0.043283,0 -0.1819121,0.1483001 -0.305527,0.3291829 -0.1970531,0.2883413 -0.2291962,0.4201239 -0.2291452,1.0262749 2.75e-5,0.380312 0.037584,0.7506221 -0.076379,0.7745478 -0.066839,0.014035 -0.060473,0.2783707 -0.028639,0.5518663 0.041638,0.357641 0.1038082,0.532847 0.2768824,0.697091 0.269583,0.2558196 0.5155765,0.6986476 0.5155765,0.9391396 0,0.32944 -0.7581257,0.905997 -1.8921808,1.432399 l 0,0.823471 5.9994332,0 5.67e-4,-0.909239 c -0.941596,-0.43428 -1.7208792,-1.035188 -1.7208792,-1.346633 0,-0.239911 0.236715,-0.683577 0.506027,-0.9391393 0.173078,-0.164244 0.2448052,-0.33945 0.2864322,-0.697091 0.03182,-0.2734956 0.03613,-0.530041 -0.02864,-0.5518663 C 9.953646,8.5259654 9.956966,8.1586773 9.956966,7.7814846 9.956965,7.2408094 9.923036,7.0396008 9.785108,6.8133008 9.5106608,6.3629989 8.6189441,6.0039093 7.9710433,6.0000246 z"
     id="rect2382-1"
     style="opacity:0.4;fill:#ffffff;fill-opacity:1;fill-rule:evenodd;stroke:none;stroke-width:1.00213277;marker:none;visibility:visible;display:inline;overflow:visible;enable-background:accumulate" />
  <path
     d="M 7.9736781,5.5134934 C 7.4892365,5.4815558 7.0166035,5.7619615 6.734785,6.1418136 6.4605709,6.6316038 6.6844869,7.2150579 6.5132852,7.7320756 6.4091517,8.1022002 6.5120429,8.4968528 6.7853304,8.7657415 7.0179072,9.0564835 7.3043388,9.4353534 7.1448971,9.8259352 6.9141284,10.265576 6.4543203,10.522958 6.0355545,10.757543 c -0.271372,0.109443 -0.7940598,0.383962 -0.4501728,0.709984 0.1560121,0.101982 0.3382908,-0.01026 0.5123215,0.02257 1.4674209,0 2.9348416,0 4.4022628,0 0,-0.176524 0,-0.353049 0,-0.529573 C 9.9407128,10.65933 9.3090248,10.36914 8.9946323,9.7829776 8.888063,9.3224911 9.2161028,8.9190674 9.5031288,8.5993209 9.7859368,8.2429598 9.6727548,7.773055 9.5740148,7.3747488 9.5322558,6.9340823 9.6760318,6.4136996 9.3445978,6.0525857 8.9862587,5.6922785 8.4683724,5.5454886 7.9736781,5.5134934 z"
     id="path3107"
     style="color:#000000;fill:url(#radialGradient3140);fill-opacity:1;fill-rule:nonzero;stroke:url(#linearGradient3143);stroke-width:0.99999976;stroke-linecap:round;stroke-linejoin:round;stroke-miterlimit:4;stroke-opacity:1;stroke-dasharray:none;stroke-dashoffset:0;marker:none;visibility:visible;display:inline;overflow:visible;enable-background:accumulate" />
</svg>

<svg xmlns="http://www.w3.org/2000/svg" xmlns:xlink="http://www.w3.org/1999/xlink" viewBox="0 0 16 16"><defs><linearGradient x1="24" y1="6.205" x2="24" y2="41.59" id="g" xlink:href="#a" gradientUnits="userSpaceOnUse" gradientTransform="matrix(.24324 0 0 .35135 2.162 -.432)"/><linearGradient id="a"><stop offset="0" stop-color="#fff"/><stop offset=".029" stop-color="#fff" stop-opacity=".235"/><stop offset=".972" stop-color="#fff" stop-opacity=".157"/><stop offset="1" stop-color="#fff" stop-opacity=".392"/></linearGradient><linearGradient id="b"><stop offset="0" stop-color="#f4f4f4"/><stop offset="1" stop-color="#dbdbdb"/></linearGradient><linearGradient x1="25.132" y1=".985" x2="25.132" y2="47.013" id="f" xlink:href="#b" gradientUnits="userSpaceOnUse" gradientTransform="matrix(.2857 0 0 .3042 1.143 .233)"/><linearGradient id="c"><stop offset="0" stop-opacity=".34"/><stop offset="1" stop-opacity=".247"/></linearGradient><linearGradient x1="-51.786" y1="50.786" x2="-51.786" y2="2.906" id="h" xlink:href="#c" gradientUnits="userSpaceOnUse" gradientTransform="matrix(.2538 0 0 .30502 19.13 -.685)"/><radialGradient cx="10.904" cy="8.45" r="20" fx="10.904" fy="8.45" id="i" xlink:href="#d" gradientUnits="userSpaceOnUse" gradientTransform="matrix(0 .4473 -.37712 0 11.188 .29)"/><linearGradient id="d"><stop offset="0" stop-color="#5f5f5f"/><stop offset=".262" stop-color="#4f4f4f"/><stop offset=".705" stop-color="#3b3b3b"/><stop offset="1" stop-color="#2b2b2b"/></linearGradient><linearGradient x1="24" y1="44" x2="24" y2="3.899" id="j" xlink:href="#e" gradientUnits="userSpaceOnUse" gradientTransform="matrix(.2983 0 0 .31813 .842 1.018)"/><linearGradient id="e"><stop offset="0" stop-color="#272727"/><stop offset="1" stop-color="#454545"/></linearGradient></defs><path d="M3 1h10v14H3V1z" fill="url(#f)"/><path d="M12.5 14.5h-9v-13h9z" fill="none" stroke="url(#g)" stroke-linecap="round"/><path d="M2.5.5h11v15h-11V.5z" fill="none" stroke="url(#h)" stroke-linejoin="round"/><path d="M7.97 6c-.215 0-.405.04-.534.126-.166.11-.24.125-.286.048-.045-.073-.085-.065-.124.04-.033.087-.103.127-.182.096-.075-.03-.106-.02-.076.03.03.046.015.086-.03.086-.042 0-.18.148-.304.33-.197.288-.23.42-.23 1.025 0 .383.038.753-.076.777-.067.014-.06.278-.028.552.04.357.103.532.277.696.27.256.515.7.515.94 0 .33-.758.905-1.892 1.432V13h6v-.91c-.942-.434-1.72-1.034-1.72-1.346 0-.24.236-.683.505-.94.173-.163.245-.338.287-.696.03-.274.036-.53-.03-.552-.088-.03-.085-.397-.085-.775 0-.54-.034-.74-.172-.966C9.51 6.364 8.62 6.004 7.97 6z" opacity=".4" fill="#fff" fill-rule="evenodd" overflow="visible"/><path d="M7.974 5.513c-.485-.03-.957.25-1.24.63-.273.49-.05 1.072-.22 1.59-.105.37-.002.764.27 1.033.234.29.52.67.36 1.06-.23.44-.69.697-1.108.932-.272.11-.795.384-.45.71.155.102.338-.01.512.022H10.5v-.53c-.56-.3-1.19-.59-1.505-1.177-.107-.46.22-.864.508-1.184.283-.358.17-.828.07-1.226-.04-.44.103-.96-.228-1.322-.36-.36-.877-.508-1.37-.54z" color="#000" fill="url(#i)" stroke="url(#j)" stroke-linecap="round" stroke-linejoin="round" overflow="visible"/></svg>
